polaris-icons/icons/new-icons/TextAlignmentLeftMajor.svg

<svg width="20" height="20" viewBox="0 0 20 20" fill="none" xmlns="http://www.w3.org/2000/svg">
<path d="M3.75 4C3.33579 4 3 4.33579 3 4.75C3 5.16421 3.33579 5.5 3.75 5.5H16.25C16.6642 5.5 17 5.16421 17 4.75C17 4.33579 16.6642 4 16.25 4H3.75Z" fill="#4A4A4A"/>
<path d="M4 7.5C3.58579 7.5 3.25 7.83579 3.25 8.25C3.25 8.66421 3.58579 9 4 9H12C12.4142 9 12.75 8.66421 12.75 8.25C12.75 7.83579 12.4142 7.5 12 7.5H4Z" fill="#4A4A4A"/>
<path d="M3 11.75C3 11.3358 3.33579 11 3.75 11H16.25C16.6642 11 17 11.3358 17 11.75C17 12.1642 16.6642 12.5 16.25 12.5H3.75C3.33579 12.5 3 12.1642 3 11.75Z" fill="#4A4A4A"/>
<path d="M4 14.5C3.58579 14.5 3.25 14.8358 3.25 15.25C3.25 15.6642 3.58579 16 4 16H12C12.4142 16 12.75 15.6642 12.75 15.25C12.75 14.8358 12.4142 14.5 12 14.5H4Z" fill="#4A4A4A"/>
</svg>

<svg viewBox="0 0 20 20" xmlns="http://www.w3.org/2000/svg"><path d="M3.75 4a.75.75 0 0 0 0 1.5h12.5a.75.75 0 0 0 0-1.5h-12.5Z" fill="#5C5F62"/><path d="M4 7.5a.75.75 0 0 0 0 1.5h8a.75.75 0 0 0 0-1.5h-8Z" fill="#5C5F62"/><path d="M3 11.75a.75.75 0 0 1 .75-.75h12.5a.75.75 0 0 1 0 1.5h-12.5a.75.75 0 0 1-.75-.75Z" fill="#5C5F62"/><path d="M4 14.5a.75.75 0 0 0 0 1.5h8a.75.75 0 0 0 0-1.5h-8Z" fill="#5C5F62"/></svg>
